X: 37
T: Steal-partner Dance Song (c)
C: Anon.
%%abc-version 2.0
%%abcx-abcm2ps-target-version 5.9.1 (29 Sep 2008)
%%abc-creator hum2abc beta
%%abcx-conversion-date 2020/08/10 20:56:09
%%abc-copyright Electronic Copyright 2000 David Huron
%%abc-edited-by David Huron
%%abcx-initial-encoding-date August 28, 2000
%%humdrum-veritas 184865954
%%humdrum-veritas-data 2083666817
%%linebreak <none>
%%barnumbers 0
L: 1/8
M: 3/4
Q: 1/4=80
K: F clef=bass
A,2G,> F, F, F,[M:2/4] | 
F,2F, z[M:3/4] | 
G, G, G,> F,F,2 | 
A, G,A,2G,2 | 
F, D,F,2z2 | 
F, D, F, F,F,2[M:2/4] | 
D,2G,2 | 
F,2F, D, | 
F,2z2 | 
F, D, F, F, | 
F,2D,2 | 
F, D,F,2 | 
F,2C2 | 
F, D, F, F, | 
F,2D,2 | 
[M:3/4]F, D,F,2F, z |]  


